X:982
T:Jock MacKay
C:Joe Buchanans Scottish Tome - Page 568.1
I:568 1
Z:Carl Allison
R:Waltz
L:1/4
M:3/4
K:G
D | "G"G A B | "G7"G2 F | "C"E F G | "G"D2 C | "G"B, D G | "G"G F G | "A7"B A G | "D7"A2 D |
"G"G A B | "G7"G2 F | "C"E F G | "G"D2 C | "G"B, D G | "D7"F G A | "G"B G G | "G7"G3 |]
B/c/ | "G"d3 | "E7"B3 | "Am"c2 B | "D7"A d c | "G"B G G | "G"G F G | "A7"B A A | "D7"A2 D |
"G"G A B | "G7"G2 F | "C"E F G | "G"D2 C | "G"B, D G | "D7"F G A | "G"B G G | "G"G3 |]
